static/assets/img/icons/theme/devices/laptop.svg

<svg height="24" viewBox="0 0 24 24" width="24" xmlns="http://www.w3.org/2000/svg"><g fill="none" fill-rule="evenodd"><path d="m0 0h24v24h-24z" opacity="0"/><g fill="#000"><path d="m6 8v8h12v-8zm14 8h1.381966c.3787721 0 .7250352.2140024.8944272.5527864l.2236068.4472136c.1706654.3413307.0323138.7563856-.309017.927051-.0959467.0479734-.2017453.072949-.309017.072949h-19.76393201c-.38161938 0-.69098301-.3093636-.69098301-.690983 0-.1072717.02497565-.2130703.07294902-.309017l.2236068-.4472136c.16939201-.338784.51565513-.5527864.89442719-.5527864h1.38196601v-8c0-1.1045695.8954305-2 2-2h12c1.1045695 0 2 .8954305 2 2z" fill-rule="nonzero"/><path d="m6 8v8h12v-8z" opacity=".3"/></g></g></svg>

<svg width="24px" height="24px" viewBox="0 0 24 24" version="1.1" xmlns="http://www.w3.org/2000/svg" xmlns:xlink="http://www.w3.org/1999/xlink">
    <title>Icon For Laptop</title>
    <g stroke="none" stroke-width="1" fill="none" fill-rule="evenodd">
        <rect opacity="0" x="0" y="0" width="24" height="24"></rect>
        <path d="M6,8 L6,16 L18,16 L18,8 L6,8 Z M20,16 L21.381966,16 C21.7607381,16 22.1070012,16.2140024 22.2763932,16.5527864 L22.5,17 C22.6706654,17.3413307 22.5323138,17.7563856 22.190983,17.927051 C22.0950363,17.9750244 21.9892377,18 21.881966,18 L2.11803399,18 C1.73641461,18 1.42705098,17.6906364 1.42705098,17.309017 C1.42705098,17.2017453 1.45202663,17.0959467 1.5,17 L1.7236068,16.5527864 C1.89299881,16.2140024 2.23926193,16 2.61803399,16 L4,16 L4,8 C4,6.8954305 4.8954305,6 6,6 L18,6 C19.1045695,6 20,6.8954305 20,8 L20,16 Z" fill="#000000" fill-rule="nonzero"></path>
        <polygon fill="#000000" opacity="0.3" points="6 8 6 16 18 16 18 8"></polygon>
    </g>
</svg>
